images/dis-s-icon.svg

<svg width="20" height="18" viewBox="0 0 20 18" fill="none" xmlns="http://www.w3.org/2000/svg">
    <g clip-path="url(#clip0_8773_35827)">
        <path d="M14.1667 4.16667C14.1667 6.0625 11.6285 9.44097 10.5139 10.8333C10.2465 11.1667 9.75 11.1667 9.48611 10.8333C8.37153 9.44097 5.83333 6.0625 5.83333 4.16667C5.83333 1.86458 7.69792 0 10 0C12.3021 0 14.1667 1.86458 14.1667 4.16667ZM14.4444 6.95833C14.566 6.71875 14.6771 6.47917 14.7778 6.24306C14.7951 6.20139 14.8125 6.15625 14.8299 6.11458L18.8576 4.50347C19.4062 4.28472 20 4.6875 20 5.27778V14.6806C20 15.0208 19.7917 15.3264 19.4757 15.4549L14.4444 17.4653V6.95833ZM4.77778 4.80208C4.86111 5.29167 5.02778 5.78472 5.22222 6.24306C5.32292 6.47917 5.43403 6.71875 5.55556 6.95833V15.6875L1.14236 17.4549C0.59375 17.6736 0 17.2708 0 16.6806V7.27778C0 6.9375 0.208333 6.63194 0.524306 6.50347L4.78125 4.80208H4.77778ZM11.3819 11.5278C11.8646 10.9236 12.6215 9.94097 13.3333 8.85417V17.5104L6.66667 15.6042V8.85417C7.37847 9.94097 8.13542 10.9236 8.61806 11.5278C9.32986 12.4167 10.6701 12.4167 11.3819 11.5278ZM10 5.27778C10.3684 5.27778 10.7216 5.13145 10.9821 4.87098C11.2426 4.61051 11.3889 4.25725 11.3889 3.88889C11.3889 3.52053 11.2426 3.16726 10.9821 2.9068C10.7216 2.64633 10.3684 2.5 10 2.5C9.63164 2.5 9.27837 2.64633 9.01791 2.9068C8.75744 3.16726 8.61111 3.52053 8.61111 3.88889C8.61111 4.25725 8.75744 4.61051 9.01791 4.87098C9.27837 5.13145 9.63164 5.27778 10 5.27778Z" fill="#2A7DEC"/>
    </g>
    <path d="M14.1673 4.16667C14.1673 6.0625 11.6291 9.44097 10.5145 10.8333C10.2472 11.1667 9.75065 11.1667 9.48676 10.8333C8.37218 9.44097 5.83398 6.0625 5.83398 4.16667C5.83398 1.86458 7.69857 0 10.0007 0C12.3027 0 14.1673 1.86458 14.1673 4.16667ZM10.0007 5.27778C10.369 5.27778 10.7223 5.13145 10.9827 4.87098C11.2432 4.61051 11.3895 4.25725 11.3895 3.88889C11.3895 3.52053 11.2432 3.16726 10.9827 2.9068C10.7223 2.64633 10.369 2.5 10.0007 2.5C9.63229 2.5 9.27903 2.64633 9.01856 2.9068C8.75809 3.16726 8.61176 3.52053 8.61176 3.88889C8.61176 4.25725 8.75809 4.61051 9.01856 4.87098C9.27903 5.13145 9.63229 5.27778 10.0007 5.27778Z" fill="#D4E5FB"/>
    <defs>
        <clipPath id="clip0_8773_35827">
            <rect width="20" height="17.7778" fill="white"/>
        </clipPath>
    </defs>
</svg>

<svg width="20" height="18" fill="none" xmlns="http://www.w3.org/2000/svg"><g clip-path="url(#a)"><path d="M14.167 4.167c0 1.896-2.538 5.274-3.653 6.666a.653.653 0 0 1-1.028 0c-1.114-1.392-3.653-4.77-3.653-6.666A4.166 4.166 0 0 1 10 0a4.166 4.166 0 0 1 4.167 4.167Zm.277 2.791c.122-.24.233-.479.334-.715.017-.042.034-.087.052-.128l4.028-1.612A.833.833 0 0 1 20 5.278v9.403c0 .34-.208.645-.524.774l-5.032 2.01V6.958ZM4.778 4.802c.083.49.25.983.444 1.441.1.236.212.476.334.715v8.73l-4.414 1.767A.833.833 0 0 1 0 16.68V7.278c0-.34.208-.646.524-.775l4.257-1.7h-.003Zm6.604 6.726a36.219 36.219 0 0 0 1.951-2.674v8.656l-6.666-1.906v-6.75a36.237 36.237 0 0 0 1.951 2.674 1.766 1.766 0 0 0 2.764 0ZM10 5.278A1.389 1.389 0 1 0 10 2.5a1.389 1.389 0 0 0 0 2.778Z" fill="#2A7DEC"/></g><path d="M14.167 4.167c0 1.896-2.538 5.274-3.652 6.666a.653.653 0 0 1-1.028 0c-1.115-1.392-3.653-4.77-3.653-6.666A4.166 4.166 0 0 1 10.001 0a4.166 4.166 0 0 1 4.166 4.167Zm-4.166 1.11A1.389 1.389 0 1 0 10 2.5a1.389 1.389 0 0 0 0 2.778Z" fill="#D4E5FB"/><defs><clipPath id="a"><path fill="#fff" d="M0 0h20v17.778H0z"/></clipPath></defs></svg>
